Obsidian-SemiLight/actions/16s/player-time.svg

<svg viewBox="0 0 16 16" xmlns="http://www.w3.org/2000/svg"><path d="m5.2597656 2.5996094c-1.3712939.6010896-2.5121922 1.619746-3.2539062 2.90625l.8652344.5c.6349999-1.101 1.6102031-1.9713281 2.7832031-2.4863282zm5.4902344 0-.394531.9199218c1.173.5150001 2.148203 1.3853282 2.783203 2.4863282l.867187-.5c-.741714-1.286504-1.884565-2.3051604-3.255859-2.90625zm-2.7460938 1.4003906a5 5 0 0 0 -5 5 5 5 0 0 0 5 5 5 5 0 0 0 4.9999998-5 5 5 0 0 0 -4.9999998-5zm0 1a4 4 0 0 1 3.9999998 4 4 4 0 0 1 -3.9999998 4 4 4 0 0 1 -4-4 4 4 0 0 1 4-4zm-1.5039062 1.5v5l3.5-2.5z" fill="#4d4d4d"/></svg>

<svg xmlns="http://www.w3.org/2000/svg" viewBox="0 0 16 16">
  <defs id="defs3051">
    <style type="text/css" id="current-color-scheme">
      .ColorScheme-Text {
        color:#4d4d4d;
      }
      </style>
  </defs>
 <path 
     style="fill:currentColor;fill-opacity:1;stroke:none" 
     d="M 5.2597656 2.5996094 C 3.8884717 3.200699 2.7475734 4.2193554 2.0058594 5.5058594 L 2.8710938 6.0058594 C 3.5060937 4.9048594 4.4812969 4.0345313 5.6542969 3.5195312 L 5.2597656 2.5996094 z M 10.75 2.5996094 L 10.355469 3.5195312 C 11.528469 4.0345313 12.503672 4.9048594 13.138672 6.0058594 L 14.005859 5.5058594 C 13.264145 4.2193554 12.121294 3.200699 10.75 2.5996094 z M 8.0039062 4 A 5 5 0 0 0 3.0039062 9 A 5 5 0 0 0 8.0039062 14 A 5 5 0 0 0 13.003906 9 A 5 5 0 0 0 8.0039062 4 z M 8.0039062 5 A 4 4 0 0 1 12.003906 9 A 4 4 0 0 1 8.0039062 13 A 4 4 0 0 1 4.0039062 9 A 4 4 0 0 1 8.0039062 5 z M 6.5 6.5 L 6.5 11.5 L 10 9 L 6.5 6.5 z "
     class="ColorScheme-Text"/>
</svg>
